X: 111204
T: The PITNACREE FERRYMAN
Q: "Reel."
R:  Reel.
%R: reel
B: James Kerr "Merry Melodies" v.1 p.11 s.2 #4
Z: 2017 John Chambers <jc:trillian.mit.edu>
M: C
L: 1/8
K: D
uf |\
aA A/A/A (Tfe)de | f2ef dBB(^g |\
a)A A/A/A (Tfe)de | fedB A/A/A A :|\
uB |\
AFAB defd | e/e/e (fd) edBd |
AFAB defd | fedB A/A/A (AB) |\
AFAB defd | e/e/e (fd) edBd |\
AFAB defa | efdB A/A/A A |]

% %newpage
%%sep 1 1 500
%%sep 1 1 500
%%center Set. 18th.

%%sep 1 1 500
%%sep 1 1 500

